_includes/icons/color-query.svg

<svg fill="#666" height="50" viewBox="0 0 48 48" width="50" xmlns="http://www.w3.org/2000/svg"><path d="m39.988281 12s1 23-15.816406 32c-17.160156-9-16.160156-32-16.160156-32 7.996094 0 15.988281-8 15.988281-8s6.996094 8 15.988281 8z" fill="#ab47bc"/><path d="m22.6875 27.460938c0-1.132813.136719-2.03125.414063-2.699219.277343-.671875.785156-1.332031 1.519531-1.980469.738281-.648437 1.230469-1.179687 1.472656-1.585937.246094-.410157.367188-.839844.367188-1.292969 0-1.363281-.636719-2.046875-1.90625-2.046875-.601563 0-1.082032.183594-1.445313.550781-.363281.367188-.550781.875-.566406 1.523438h-3.542969c.015625-1.542969.519531-2.75 1.507813-3.621094.988281-.871094 2.339843-1.308594 4.046875-1.308594 1.726562 0 3.0625.414063 4.019531 1.242188.949219.828125 1.425781 1.992187 1.425781 3.503906 0 .6875-.152344 1.332031-.464844 1.941406-.308593.613281-.851562 1.289063-1.625 2.03125l-.984375.929688c-.621093.589843-.976562 1.28125-1.066406 2.074218l-.046875.738282zm-.355469 3.707031c0-.539063.1875-.980469.558594-1.332031.367188-.351563.84375-.527344 1.421875-.527344s1.050781.175781 1.421875.527344c.371094.351562.554688.792968.554688 1.332031 0 .527344-.179688.96875-.542969 1.3125s-.84375.519531-1.433594.519531c-.59375 0-1.074219-.175781-1.4375-.519531-.359375-.34375-.542969-.785156-.542969-1.3125z" fill="#f3e5f5"/></svg>

<svg xmlns="http://www.w3.org/2000/svg" viewBox="0 0 48 48" width="50" height="50" fill="#666"><path d="M 39.988281 12 C 39.988281 12 40.988281 35 24.171875 44 C 7.011719 35 8.011719 12 8.011719 12 C 16.007813 12 24 4 24 4 C 24 4 30.996094 12 39.988281 12 Z" fill="#ab47bc"/><path d="M 22.6875 27.460938 C 22.6875 26.328125 22.824219 25.429688 23.101563 24.761719 C 23.378906 24.089844 23.886719 23.429688 24.621094 22.78125 C 25.359375 22.132813 25.851563 21.601563 26.09375 21.195313 C 26.339844 20.785156 26.460938 20.355469 26.460938 19.902344 C 26.460938 18.539063 25.824219 17.855469 24.554688 17.855469 C 23.953125 17.855469 23.472656 18.039063 23.109375 18.40625 C 22.746094 18.773438 22.558594 19.28125 22.542969 19.929688 L 19 19.929688 C 19.015625 18.386719 19.519531 17.179688 20.507813 16.308594 C 21.496094 15.4375 22.847656 15 24.554688 15 C 26.28125 15 27.617188 15.414063 28.574219 16.242188 C 29.523438 17.070313 30 18.234375 30 19.746094 C 30 20.433594 29.847656 21.078125 29.535156 21.6875 C 29.226563 22.300781 28.683594 22.976563 27.910156 23.71875 L 26.925781 24.648438 C 26.304688 25.238281 25.949219 25.929688 25.859375 26.722656 L 25.8125 27.460938 Z M 22.332031 31.167969 C 22.332031 30.628906 22.519531 30.1875 22.890625 29.835938 C 23.257813 29.484375 23.734375 29.308594 24.3125 29.308594 C 24.890625 29.308594 25.363281 29.484375 25.734375 29.835938 C 26.105469 30.1875 26.289063 30.628906 26.289063 31.167969 C 26.289063 31.695313 26.109375 32.136719 25.746094 32.480469 C 25.382813 32.824219 24.902344 33 24.3125 33 C 23.71875 33 23.238281 32.824219 22.875 32.480469 C 22.515625 32.136719 22.332031 31.695313 22.332031 31.167969 Z" fill="#f3e5f5"/></svg>
